<?xml version="1.0" encoding="UTF-8"?>
<map version="1.10" tiledversion="1.12.2" orientation="orthogonal" renderorder="right-down" width="32" height="18" tilewidth="16" tileheight="16" infinite="0" nextlayerid="8" nextobjectid="25">
 <tileset firstgid="1" source="../spritesheet.tsx"/>
 <layer id="2" name="Floors" width="32" height="18">
  <data encoding="csv">
4801,4801,4801,4801,4801,4801,4801,2473,2473,2473,2473,2473,2473,2473,2473,2473,2473,2473,2569,2569,2569,2473,2473,2473,2473,2473,2473,2473,2473,2473,2377,2378,
2378,2379,4897,4897,4897,4897,4897,2569,2569,2569,2569,2569,2569,2569,2569,2569,2569,2569,2569,2570,2571,2569,2569,2569,2569,2569,2569,2569,2569,2569,2377,2378,
2474,2475,4899,4801,4801,4801,4801,4801,4801,4801,4801,4801,4801,4801,4801,4801,4898,4898,4898,4899,4801,4801,4801,4801,4801,4801,4801,4898,4898,4898,2377,2378,
2474,2475,4898,4899,4899,4897,4897,4898,4899,4899,4899,4899,4899,4897,4897,4897,4897,4897,4897,4898,4898,4898,4898,4899,4897,4897,4898,4898,4899,4897,2377,2378,
2474,2475,4801,4801,4801,4898,4899,4801,4801,4801,4801,4801,4801,4801,4801,4801,4801,4801,4801,4801,4801,4801,4801,4801,4801,4801,4898,4899,4801,4801,2377,2378,
2474,2475,4897,4897,4897,4897,4897,4897,4897,4897,4897,4897,4897,4897,4898,4899,4899,4899,4899,4897,4897,4897,4897,4897,4897,4898,4898,4899,4897,4897,2377,2377,
2474,2475,4801,4801,4801,4801,4898,4899,4801,4801,4898,4899,4801,4801,4801,4801,4801,4801,4801,4898,4898,4898,4898,4899,4801,4801,4801,4801,4801,4801,2377,2378,
2474,2475,4897,4897,4897,4897,4897,4897,4897,4897,4897,4897,4897,4897,4897,4897,4897,4898,4898,4898,4899,4897,4897,4897,4897,4897,4897,4897,4897,4897,2377,2378,
2474,2475,4899,4801,4801,4801,4801,4801,4801,4801,4801,4801,4801,4801,4801,4801,4801,4898,4899,4801,4801,4801,4801,4801,4898,4899,4801,4801,4801,4801,2377,2378,
2474,2475,4897,4898,4899,4897,4898,4898,4898,4899,4897,4897,4897,4897,4897,4897,4898,4899,4897,4897,4897,4897,4897,4897,4897,4898,4898,4899,4897,4897,2377,2378,
2474,2475,4801,4801,4898,4898,4898,4899,4801,4801,4801,4801,4801,4801,4801,4898,4899,4801,4801,4801,4801,4801,4801,4801,4801,4801,4898,4898,4898,4898,2377,2378,
2474,2475,4897,4897,4897,4897,4897,4897,4898,4899,4897,4897,4897,4897,4898,4899,4897,4897,4897,4897,4897,4898,4898,4899,4897,4897,4897,4897,4897,4897,2377,2378,
2474,2475,4801,4801,4801,4801,4801,4801,4801,4801,4801,4801,4801,4898,4898,4899,4801,4801,4801,4801,4801,4801,4801,4898,4898,4899,4801,4801,4801,4801,2377,2378,
2474,2475,4899,4898,4899,4897,4897,4897,4897,4897,4897,4897,4898,4898,4899,4897,4897,4897,4897,4897,4897,4898,4899,4897,4897,4898,4898,4899,4897,4897,2377,2378,
2474,2475,4801,4801,4801,4898,4899,4801,4801,4898,4898,4898,4898,4899,4801,4801,4801,4801,4801,4801,4898,4899,4899,4899,4899,4801,4801,4801,4801,4801,2377,2378,
2474,2475,4897,4897,4897,4897,4897,4898,4899,4897,4897,4897,4897,4897,4897,4897,4897,4897,4897,4897,4897,4897,4897,4897,4897,4897,4897,4897,4897,4897,2377,2378,
2474,2474,2474,2474,2474,2474,2474,2474,2474,2474,2474,2475,2474,2474,2474,2474,2474,2474,2474,2474,2474,2475,2474,2475,2475,2475,2475,2475,2475,2475,2377,2378,
2570,2570,2570,2570,2570,2570,2570,2570,2570,2570,2570,2571,2570,2570,2570,2570,2570,2570,2570,2570,2570,2571,2570,2571,2571,2571,2571,2571,2571,2571,2377,2378
</data>
 </layer>
 <layer id="1" name="Walls" width="32" height="18">
  <data encoding="csv">
2473,2473,2473,2473,2473,2474,2475,0,0,0,0,0,0,0,0,0,0,0,0,0,0,0,0,0,0,0,0,0,0,0,0,0,
2569,2569,2569,2569,2569,2570,2571,0,0,0,0,0,0,0,0,0,0,0,0,0,0,0,0,0,0,0,0,0,0,0,0,0,
0,0,0,0,0,0,0,0,0,0,0,0,0,0,0,0,0,0,0,0,0,0,0,0,0,0,0,0,0,0,0,0,
0,0,0,0,0,0,0,0,0,0,0,0,0,0,0,0,0,0,0,0,0,0,0,0,0,0,0,0,0,0,0,0,
0,0,0,0,0,0,0,0,0,0,0,0,0,0,0,0,0,0,0,0,0,0,0,0,0,0,0,0,0,0,0,0,
0,0,0,0,0,0,0,0,0,0,0,0,0,0,0,0,0,0,0,0,0,0,0,0,0,0,0,0,0,0,242,242,
0,0,0,0,0,0,0,0,0,0,0,0,0,0,0,0,0,0,0,0,0,0,0,0,0,0,0,0,0,0,338,338,
0,0,0,0,0,0,0,0,0,0,0,0,0,0,0,0,0,0,0,0,0,0,0,0,0,0,0,0,0,0,338,338,
0,0,0,0,0,0,0,0,0,0,0,0,0,0,0,0,0,0,0,0,0,0,0,0,0,0,0,0,0,0,338,338,
0,0,0,0,0,0,0,0,0,0,0,0,0,0,0,0,0,0,0,0,0,0,0,0,0,0,0,0,0,0,242,338,
0,0,0,0,0,0,0,0,0,0,0,0,0,0,0,0,0,0,0,0,0,0,0,0,0,0,0,0,0,0,338,338,
0,0,0,0,0,0,0,0,0,0,0,0,0,0,0,0,0,0,0,0,0,0,0,0,0,0,0,0,0,0,0,0,
0,0,0,0,0,0,0,0,0,0,0,0,0,0,0,0,0,0,0,0,0,0,0,0,0,0,0,0,0,0,0,0,
0,0,0,0,0,0,0,0,0,0,0,0,0,0,0,0,0,0,0,0,0,0,0,0,0,0,0,0,0,0,0,0,
0,0,0,0,0,0,0,0,0,0,0,0,0,0,0,0,0,0,0,0,0,0,0,0,0,0,0,0,0,0,0,0,
0,0,0,0,0,0,0,0,0,0,0,0,0,0,0,0,0,0,0,0,0,0,0,0,0,0,0,0,0,0,0,0,
0,0,0,0,0,0,0,0,0,0,0,0,0,0,0,0,0,0,0,0,0,0,0,0,0,0,0,0,0,0,0,0,
0,0,0,0,0,0,0,0,0,0,0,0,0,0,0,0,0,0,0,0,0,0,0,0,0,0,0,0,0,0,0,0
</data>
 </layer>
 <layer id="3" name="Decors" width="32" height="18">
  <data encoding="csv">
0,0,2905,2906,2907,0,3061,3062,0,0,0,0,0,0,0,0,0,0,0,0,0,0,0,0,0,0,0,0,0,0,0,0,
0,0,3001,3002,3003,193,3157,3158,0,0,0,0,0,0,0,0,0,0,0,3355,3356,3357,0,0,0,0,0,0,0,0,0,0,
0,0,3097,3098,3099,0,2,0,0,0,0,0,0,0,0,0,0,0,0,3451,3452,3453,0,0,0,0,0,0,0,0,0,0,
0,0,0,0,0,0,0,0,0,0,0,0,0,0,0,0,0,0,0,0,0,0,0,0,0,0,0,0,0,0,0,0,
0,0,0,0,99,0,0,0,2,0,0,0,0,0,0,0,0,193,0,0,0,0,0,0,0,0,0,0,0,0,0,0,
0,0,0,0,0,0,0,0,0,0,0,0,0,0,0,0,193,0,0,0,0,0,0,0,0,0,0,0,0,0,2399,2400,
0,0,0,0,0,0,0,0,0,0,0,0,0,0,0,193,99,0,0,0,0,0,0,0,0,0,0,0,0,0,0,2496,
0,0,0,0,0,0,0,0,0,0,0,0,0,0,0,2968,2969,2970,0,0,0,0,0,0,0,0,0,0,0,0,0,2496,
0,0,0,0,0,0,0,0,2,0,0,0,0,193,1,3064,3065,3066,193,0,0,0,0,0,0,0,0,0,0,0,0,2496,
0,0,0,0,0,0,0,0,0,0,0,0,0,0,0,3160,3161,3162,0,0,0,0,0,0,0,0,0,0,0,0,0,2496,
0,0,0,0,0,0,0,2,0,0,0,0,0,0,193,193,0,0,0,0,0,0,0,0,0,0,0,0,0,0,2591,2592,
0,0,0,0,0,0,0,0,0,0,0,0,0,0,0,99,193,0,0,0,0,0,0,0,0,0,0,0,0,0,0,0,
0,0,0,0,0,0,0,0,0,2,0,0,0,0,0,0,0,193,99,0,0,0,0,0,0,0,0,0,0,0,0,0,
0,0,0,0,0,0,0,0,0,0,0,0,0,0,0,0,0,0,193,193,0,0,0,0,0,0,0,0,0,0,0,0,
0,0,0,98,98,0,0,0,0,0,0,0,0,0,0,0,0,0,0,193,193,0,0,0,0,0,0,0,0,0,0,0,
0,0,0,98,0,0,0,0,0,0,0,0,0,0,0,0,0,0,0,0,0,0,0,0,0,0,0,0,0,0,0,0,
0,0,0,0,0,0,0,0,0,0,0,0,0,0,0,0,0,0,0,0,0,0,0,0,0,0,0,0,0,0,0,0,
0,0,0,0,0,0,0,0,0,0,0,0,0,0,0,0,0,0,0,0,0,0,0,0,0,0,0,0,0,0,0,0
</data>
 </layer>
 <objectgroup id="6" name="Npcs"/>
 <objectgroup id="7" name="interest_points">
  <object id="1" x="94" y="129">
   <properties>
    <property name="type" value="player_spawn"/>
   </properties>
  </object>
  <object id="2" x="445.25" y="62.25">
   <properties>
    <property name="type" value="inv_point"/>
   </properties>
  </object>
  <object id="3" x="440.5" y="207.5">
   <properties>
    <property name="type" value="inv_point"/>
   </properties>
  </object>
  <object id="4" x="202" y="231.5">
   <properties>
    <property name="type" value="inv_point"/>
   </properties>
  </object>
  <object id="5" x="47.5" y="230.5">
   <properties>
    <property name="type" value="inv_point"/>
   </properties>
  </object>
  <object id="6" x="121.5" y="45.5">
   <properties>
    <property name="type" value="inv_point"/>
   </properties>
  </object>
  <object id="7" x="287" y="47.5">
   <properties>
    <property name="type" value="inv_point"/>
   </properties>
  </object>
  <object id="8" x="227" y="150.5">
   <properties>
    <property name="type" value="inv_point"/>
   </properties>
  </object>
  <object id="9" x="357.5" y="170">
   <properties>
    <property name="type" value="inv_point"/>
   </properties>
  </object>
 </objectgroup>
 <objectgroup id="4" name="Collisions">
  <object id="15" x="25" y="-10" width="60.5" height="61"/>
  <object id="16" x="304" y="17" width="48" height="30"/>
  <object id="17" x="3" y="-1.5" width="508.5" height="33"/>
  <object id="18" x="488" y="-30" width="44" height="329"/>
  <object id="19" x="-17" y="254.5" width="535" height="42.5"/>
  <object id="20" x="-23" y="-20" width="59.5" height="329.5"/>
  <object id="21" x="194" y="330"/>
  <object id="22" x="114.5" y="-30"/>
 </objectgroup>
 <objectgroup id="5" name="Interactables">
  <object id="10" x="126.5" y="85.5">
   <properties>
    <property name="object" value="battery"/>
   </properties>
  </object>
  <object id="23" x="211" y="-19.5"/>
  <object id="24" x="211" y="-19.5"/>
 </objectgroup>
</map>
