<?xml version="1.0" encoding="UTF-8"?>
<map version="1.10" tiledversion="1.12.2" orientation="orthogonal" renderorder="right-down" width="32" height="16" tilewidth="16" tileheight="16" infinite="0" nextlayerid="8" nextobjectid="26">
 <tileset firstgid="1" source="../spritesheet.tsx"/>
 <layer id="2" name="Floors" width="32" height="16">
  <data encoding="csv">
4801,4801,4801,4801,4801,4801,4801,4801,4801,4801,4801,4801,4801,4801,4801,4801,4801,4801,4801,4801,4801,4801,4801,4801,4801,4801,4801,4801,4801,4801,4801,4801,
4897,4897,4897,4897,4897,4897,4897,4897,4897,4897,4897,4897,4897,4897,4897,4897,4897,4897,4897,4897,4897,4897,4897,4897,4897,4897,4897,4897,4897,4897,4897,4897,
4801,4801,4898,4899,4899,4899,4899,4899,4899,4899,4899,4801,4801,4801,4801,4801,4801,4801,4801,4801,4801,4801,4801,4801,4801,4801,4801,4801,4801,4801,4801,4801,
4897,4898,4899,4897,4897,4897,4897,4897,4897,4897,4897,4897,4897,4897,4897,4897,4897,4897,4897,4897,4897,4897,4897,4897,4897,4897,4897,4897,4897,4897,4897,4897,
4801,4801,4801,4801,4801,4801,4801,4801,4801,4801,4801,4801,4801,4801,4801,4801,4801,4801,4801,4898,4898,4898,4898,4898,4898,4898,4898,4898,4898,4898,4898,4899,
4897,4897,4897,4897,4897,4897,4897,4897,4897,4897,4897,4897,4897,4897,4897,4897,4897,4897,4897,4897,4897,4897,4897,4897,4897,4897,4897,4897,4897,4897,4897,4897,
4801,4801,4801,4801,4801,4801,4801,4898,4898,4898,4898,4899,4801,4801,4801,4801,4801,4801,4801,4801,4801,4801,4801,4801,4801,4801,4801,4801,4801,4801,4801,4801,
4897,4897,4897,4897,4897,4897,4897,4897,4897,4897,4897,4897,4897,4897,4897,4897,4897,4897,4897,4897,4897,4897,4897,4897,4897,4897,4897,4897,4897,4897,4897,4897,
4801,4801,4801,4801,4801,4801,4801,4801,4801,4801,4801,4801,4801,4801,4801,4898,4898,4898,4898,4898,4898,4898,4898,4898,4898,4898,4899,4801,4801,4801,4801,4801,
4897,4897,4897,4898,4898,4898,4898,4899,4897,4897,4897,4897,4897,4897,4897,4897,4897,4897,4897,4897,4897,4897,4897,4897,4897,4898,4898,4898,4899,4897,4897,4897,
4801,4801,4801,4801,4801,4801,4801,4801,4898,4898,4898,4898,4898,4898,4898,4899,4801,4801,4801,4801,4801,4801,4801,4801,4801,4801,4801,4801,4801,4801,4801,4801,
4897,4897,4897,4897,4897,4897,4897,4897,4897,4897,4897,4897,4897,4897,4897,4897,4897,4897,4897,4897,4897,4897,4897,4897,4897,4897,4897,4897,4897,4897,4897,4897,
4801,4801,4801,4801,4801,4801,4801,4801,4801,4801,4801,4801,4801,4801,4801,4801,4898,4898,4898,4899,4801,4801,4801,4801,4801,4801,4801,4801,4801,4801,4801,4801,
4897,4897,4897,4897,4897,4897,4897,4897,4897,4897,4897,4897,4897,4897,4897,4897,4897,4897,4898,4898,4898,4898,4898,4898,4899,4897,4897,4897,4897,4897,4897,4897,
4898,4899,4899,4899,4899,4899,4899,4899,4801,4801,4801,4801,4801,4801,4801,4801,4801,4801,4801,4801,4801,4801,4801,4801,4898,4898,4899,4801,4801,4801,4801,4801,
4897,4897,4897,4897,4897,4897,4898,4899,4899,4897,4897,4897,4897,4897,4897,4897,4897,4897,4897,4897,4897,4897,4897,4897,4897,4897,4897,4897,4897,4897,4897,4897
</data>
 </layer>
 <layer id="1" name="Walls" width="32" height="16">
  <data encoding="csv">
2377,2377,2377,2377,2377,2377,2377,2377,2378,2379,2377,2377,2377,2377,2473,2473,2473,2377,2377,2377,2377,2377,2377,2378,2379,2473,2377,2377,2377,2377,2378,2379,
2377,2377,2377,2377,2377,2473,2473,2377,2377,2377,2377,2377,2377,242,242,242,242,242,242,242,2473,2473,2377,2377,2377,2377,2377,2377,2377,2377,2377,2378,
2473,2473,2473,2473,2473,2569,2569,2473,2473,2473,2473,2473,2473,338,338,338,338,338,338,338,2569,2569,2473,2473,2473,2473,2473,2473,2473,2473,2473,2474,
2569,2569,2569,2569,2569,2569,2570,2569,2569,2569,2569,2569,2569,338,338,338,338,338,338,338,2569,2570,2569,2569,2569,2569,2569,2569,2569,2569,2569,2570,
0,0,0,0,0,0,0,0,0,0,0,0,0,0,0,0,0,0,0,0,0,0,0,0,0,0,0,0,0,0,0,0,
0,0,0,0,0,0,0,0,0,0,0,0,0,0,0,0,0,0,0,0,0,0,0,0,0,0,0,0,0,0,0,0,
0,0,0,0,0,0,0,0,0,0,0,0,0,0,0,0,0,0,0,0,0,0,0,0,0,0,0,0,0,0,0,0,
0,0,0,0,0,0,0,0,0,0,0,0,0,0,0,0,0,0,0,0,0,0,0,0,0,0,0,0,0,0,0,0,
0,0,0,0,0,0,0,0,0,0,0,0,0,0,0,0,0,0,0,0,0,0,0,0,0,0,0,0,0,0,0,0,
0,0,0,0,0,0,0,0,0,0,0,0,0,0,0,0,0,0,0,0,0,0,0,0,0,0,0,0,0,0,0,0,
0,0,0,0,0,0,0,0,0,0,0,0,0,0,0,0,0,0,0,0,0,0,0,0,0,0,0,0,0,0,0,0,
2377,2378,2379,2379,2379,2379,2379,2379,2377,2378,2379,2379,2379,2379,2379,2379,2377,2378,2379,2379,2379,2378,2379,2379,2379,2379,2378,2379,2379,2379,2379,2379,
2473,2474,2475,2475,2475,2475,2475,2475,2379,2379,2379,2475,2475,2475,2475,2475,2379,2379,2379,2475,2475,2379,2379,2475,2475,2475,2379,2379,2475,2475,2475,2475,
2569,2570,2571,2571,2571,2571,2571,2571,2475,2475,2475,2571,2571,2571,2571,2571,2475,2475,2475,2571,2571,2475,2475,2571,2571,2571,2475,2475,2571,2571,2571,2571,
2473,2473,2473,2473,2473,2569,2570,2571,2571,2571,2571,2473,2473,2569,2570,2571,2571,2571,2571,2570,2571,2571,2571,2569,2570,2571,2571,2571,2473,2473,2474,2475,
2569,2569,2569,2569,2569,2569,2569,2569,2569,2569,2569,2569,2569,2569,2569,2569,2569,2569,2569,2569,2569,2569,2569,2569,2569,2569,2569,2569,2569,2569,2570,2571
</data>
 </layer>
 <layer id="3" name="Decors" width="32" height="16">
  <data encoding="csv">
0,2962,2963,0,0,0,0,0,0,0,0,0,99,0,0,0,0,0,0,0,0,99,0,0,0,0,0,0,0,0,0,0,
0,3058,3059,99,0,0,0,193,0,0,0,0,0,0,0,0,0,0,0,0,0,0,0,0,0,0,0,0,0,193,0,0,
0,3154,3155,0,0,0,0,0,0,193,0,0,0,3829,3830,3830,3830,3830,3830,3831,0,2678,2679,2680,0,0,193,0,0,0,0,0,
0,0,0,0,2656,2657,2658,0,0,0,0,193,0,3926,3926,3926,3926,3926,3926,3926,0,2774,2775,2776,0,0,0,0,0,0,0,0,
0,0,0,0,2752,2753,2754,0,0,0,0,0,0,0,0,0,0,0,0,1,2,3,2871,2872,0,0,0,0,0,0,0,0,
0,3253,3257,3257,3257,3257,3257,3257,3257,3257,3257,3257,3257,3257,3257,3257,3257,3257,3257,3257,3257,2969,2969,2969,3257,3257,3257,3257,3257,2969,2970,0,
0,3352,3353,3353,3353,3353,3353,3353,3353,3353,3353,3353,3353,3353,3353,3353,3353,3353,3353,3353,3353,3353,3353,3353,3353,3353,3353,3353,3353,3353,3354,3264,
0,3448,3353,3353,3353,3353,3353,3353,3353,3353,3353,3353,3353,3353,3353,3353,3353,3353,3353,3353,3353,3353,3353,3353,3353,3353,3353,3353,3353,3065,3066,3360,
0,3448,3353,3353,3353,3353,3353,3353,3353,3353,3353,3353,3353,3353,3353,3353,3353,3353,3353,3353,3353,3353,3353,3353,3353,3353,3353,3353,3353,3161,3162,3456,
0,3544,3545,3545,3545,3545,3545,3545,3545,3545,3545,3545,3545,3545,3545,3545,3545,3545,3545,3545,3545,3545,3545,3545,3545,3545,3545,3545,3545,3545,3546,2658,
0,0,0,0,1,2,3,0,0,0,0,0,0,0,0,0,0,0,0,0,0,0,0,0,1,2,3,0,0,2752,2753,2754,
0,0,0,0,0,0,0,0,0,0,0,0,0,0,0,0,0,0,0,0,0,0,0,0,0,0,0,0,0,0,0,0,
0,0,0,0,0,0,0,0,0,0,0,0,0,0,0,0,0,0,0,0,0,0,0,0,0,0,0,0,0,0,0,0,
0,0,0,0,0,0,0,0,0,0,0,0,0,0,0,0,0,0,0,0,0,0,0,0,0,0,0,0,0,0,0,0,
0,0,0,0,0,0,0,0,0,0,0,0,0,0,0,0,0,0,0,0,0,0,0,0,0,0,0,0,0,0,0,0,
0,0,0,0,0,0,0,0,0,0,0,0,0,0,0,0,0,0,0,0,0,0,0,0,0,0,0,0,0,0,0,0
</data>
 </layer>
 <objectgroup id="6" name="Npcs"/>
 <objectgroup id="7" name="interest_points"/>
 <objectgroup id="4" name="Collisions"/>
 <objectgroup id="5" name="Interactables"/>
</map>
